X: 2060
T: Âlemin Aklın Alır
C: Ahmet Avni Konuk
O: Turkey
F: http://compmusic.upf.edu/node/140
N: dilkeshaveran--kupe--agirevfer--alemin--ahmet_avni_konuk
N: makam= dilkeshaveran
N: form= kupe
N: usul= agirevfer = 9/4
M: 9/4
L: 1/16
K: C _2/4B ^3/4f  
Q: 1/4=72
%%MIDI tuningsystem comma53
z4 d8 e4 e3d c2d2 g2^2/4fe e4 z4  | \
w:  Â le min  *  *  *  ak  | 
z4 c2d2 c4 d2e2 d2c2 {d}c2B2 c2BA A4 z4  | 
w:  lın  *  *  a *  lır  *  *  *  *  bî  | 
z4 A8 g4 g2f2 e2f2 a2g2 ^f3e d4  | \
w:  huş  e der  *  *  *  hay  | 
z4 d2_1/4b2 a4 g4 f2e2 e4 e2d2 edcd e4  | 
w:  lı  *  *  *  za *  man    | 
z4 e8 f4 g4 a4 a2g2 ^f3e d4  | z4 c2d2 c4 d4 e2=f2 e2d2 d2c2 B2A2 B4  | 
w:  Et se  ol  *  hur  |  şîd_ *  *  i  dil *  *  *  keş   | 
z4 A2G2 A4 B4 c4 B2A2 A3G F4 B4  | \
w:  fasl_ *  *  ı  Dil *  *  keş  | 
z4 A2B2 c4 B2A2 A2G4F^3/4E F8 z4  | 
w:  hâ *  *  ve *  rân    | 
|


